X:3560
T:Last of the Twins
T:Northumbrian hornpipe
O:england
R:Hornpipe
R:Reel
M:4/4
A:Northumberland
K:D
(3ABc|\
dAFA BAFE|DFAd BAFD|1 CDEF GABA|GFED E2:|2\
CDEF GABc|d2ce d2::
(3ABc|\
dcde dcBA|BABc BAFD|1 CDEF GABA|GFED E2:|2\
CDEF GABc|d2ce d2:|
